X: 145126
M: C
L: 1/8
K: D
d>B |\
fB (3(dcB) bB (3(dcB) | fedc Bbag |\
fgec dABG | FGEF D2 :|
|: (fg) |\
afdf bgeg | fgec dcBA |\
defg afbg | fedc dbag |\
fedc dABG | FGEF D2 :|


